X: 92
T: the Scotsman over the Border
R: jig
Z: 2012 John Chambers <jc@trillian.mit.edu>
B: "100 Essential Irish Session Tunes" 1995 Dave Mallinson, ed.
M: 6/8
L: 1/8
K: D
|:\
"D"DED FDF | AFA d2A | "G"BdB BAF | "E7"def "A"edB |\
"D"ADD FDF | AFA "Bm"d2A | "G"B/c/dB "D"AFA | dAF "A"E2D :|
|:\
"D"dfa afa | "Em"bag fge | "D"dfa afe | "E7"def "A"edB |\
"D"dfa afa | "Em"bag fge | "G"d2B "D"AFA | dAF "A"E2D :|

%%sep 2 1 500
%%sep 1 1 500

